snov-logo.svg

<svg width="116" height="30" viewBox="0 0 116 30" fill="none" xmlns="http://www.w3.org/2000/svg">
  <path class="logo-path-left"
    d="M3.62109 27.2256V21.9045C6.91631 23.4248 9.70458 24.185 11.7324 24.185C14.3939 24.185 15.6613 23.1714 15.6613 21.271C15.6613 20.2575 15.0276 19.4973 13.887 18.6104C13.38 18.2304 12.2394 17.5969 10.465 16.8367C8.69066 16.0766 7.42327 15.3164 6.66284 14.5562C4.88849 13.0359 3.87457 11.0088 3.87457 8.72832C3.87457 6.44783 4.63501 4.54743 6.28262 3.15379C7.93023 1.76016 10.2115 1 13.1265 1C15.5346 1 18.1961 1.63347 21.2379 2.90041L19.3368 7.33469C16.6752 6.32114 14.7741 5.68767 13.38 5.68767C11.9859 5.81436 10.972 6.06775 10.465 6.57453C9.83132 7.0813 9.57784 7.58808 9.57784 8.22155C9.57784 8.85501 9.70458 9.36179 9.95806 9.74187C10.2115 10.122 10.5918 10.502 11.0987 10.8821C11.6057 11.2622 12.9998 11.8957 15.1544 13.0359C17.4357 14.0495 18.9565 15.1897 19.9705 16.4566C20.9844 17.7236 21.3646 19.1172 21.3646 20.8909C21.3646 23.2981 20.4774 25.3252 18.7031 26.7188C16.9287 28.1125 14.5207 28.8726 11.4789 28.8726C8.43719 28.8726 5.9024 28.3659 3.62109 27.2256Z"
    fill="#7D62EC"></path>
  <path class="logo-path-left"
    d="M25.8005 28.4926V7.71477H30.1096L30.87 10.3753H31.1235C32.3909 8.34824 34.5455 7.33469 37.4605 7.33469C39.8685 7.33469 41.6429 7.96816 42.9103 9.2351C44.1777 10.502 44.9381 12.5291 44.9381 14.9363V28.4926H39.2348V16.4566C39.2348 14.9363 38.9814 13.7961 38.4744 13.0359C37.9674 12.2757 37.0803 11.8957 35.9396 11.8957C34.4187 11.8957 33.1513 12.4024 32.5176 13.416C31.884 14.4295 31.5037 16.2033 31.5037 18.6104V28.3659L25.8005 28.4926Z"
    fill="#7D62EC"></path>
  <path class="logo-path-left"
    d="M49.5007 18.1037C49.5007 14.6829 50.3878 12.0224 52.1622 10.2486C53.9365 8.34824 56.3446 7.33469 59.6398 7.33469C61.6676 7.33469 63.442 7.71477 64.8361 8.60163C66.357 9.48848 67.4976 10.7554 68.3848 12.2757C69.1452 13.9228 69.6522 15.8232 69.6522 17.977C69.6522 21.3977 68.765 24.0583 66.9907 25.9587C65.2163 27.8591 62.6815 28.8726 59.5131 28.8726C57.4852 28.8726 55.7109 28.4926 54.19 27.6057C52.6691 26.7188 51.5285 25.4519 50.6413 23.8049C49.8809 22.1579 49.5007 20.2575 49.5007 18.1037ZM56.2178 13.416C55.5841 14.4295 55.2039 15.9499 55.2039 17.977C55.2039 20.0041 55.5841 21.6511 56.2178 22.6646C56.8515 23.6782 57.9922 24.185 59.5131 24.185C61.0339 24.185 62.1746 23.6782 62.8083 22.6646C63.442 21.6511 63.8222 20.1308 63.8222 17.977C63.8222 15.9499 63.442 14.4295 62.8083 13.416C62.1746 12.4024 61.0339 11.8957 59.5131 11.8957C57.9922 11.8957 56.9783 12.4024 56.2178 13.416Z"
    fill="#7D62EC"></path>
  <path class="logo-path-left"
    d="M70.5395 7.71476H76.4962C78.1959 12.6525 81.5658 22.5379 81.5658 22.5379C81.5658 22.5379 84.927 12.0779 86.3819 7.71476H92.3386L84.2273 28.4925H78.3973L70.5395 7.71476Z"
    fill="#7D62EC"></path>
  <g opacity="0.5">
    <path class="logo-path-right"
      d="M92.5933 28.4933L95.635 14.6837H99.3104L96.3954 28.4933H92.5933ZM96.142 11.3896C96.142 10.6295 96.3954 10.1227 96.7757 9.74262C97.1559 9.36253 97.6628 9.23584 98.4233 9.23584C99.4372 9.23584 100.071 9.74261 100.071 10.7562C100.071 11.3896 99.9441 11.8964 99.5639 12.4032C99.1837 12.7833 98.8035 13.0367 98.0431 13.0367C96.7757 12.91 96.142 12.4032 96.142 11.3896Z"
      fill="#DDCDFF"></path>
    <path class="logo-path-right"
      d="M102.225 27.3531C101.212 26.3395 100.831 25.0726 100.831 23.4256C100.831 21.7785 101.085 20.2582 101.718 18.8646C102.352 17.471 103.113 16.4574 104.253 15.6972C105.394 14.9371 106.661 14.557 108.309 14.557C109.83 14.557 111.097 15.0638 111.984 16.0773C112.872 17.0909 113.379 18.3578 113.379 20.1315C113.379 21.9052 113.125 23.4256 112.491 24.6925C111.858 25.9594 111.097 27.0997 109.957 27.8598C108.816 28.62 107.549 29.0001 106.028 29.0001C104.507 29.0001 103.239 28.2399 102.225 27.3531ZM104.507 23.4256C104.507 24.9459 105.14 25.706 106.408 25.706C107.042 25.706 107.549 25.4527 108.055 24.9459C108.562 24.4391 108.943 23.6789 109.196 22.7921C109.45 21.9052 109.576 20.8917 109.576 19.8781C109.576 18.2311 108.943 17.471 107.802 17.471C107.168 17.471 106.661 17.7243 106.154 18.2311C105.647 18.7379 105.267 19.4981 105.014 20.3849C104.76 21.3985 104.507 22.412 104.507 23.4256Z"
      fill="#DDCDFF"></path>
  </g>
</svg>

<svg xmlns="http://www.w3.org/2000/svg" width="116" height="30" fill="none"><path fill="#7D62EC" d="M3.621 27.226v-5.321c3.295 1.52 6.084 2.28 8.111 2.28 2.662 0 3.93-1.014 3.93-2.914 0-1.014-.634-1.774-1.775-2.66-.507-.38-1.648-1.014-3.422-1.774q-2.662-1.14-3.802-2.28c-1.775-1.521-2.788-3.548-2.788-5.829s.76-4.18 2.408-5.574S10.21 1 13.127 1c2.408 0 5.07.633 8.11 1.9l-1.9 4.435c-2.662-1.014-4.563-1.647-5.957-1.647-1.394.126-2.408.38-2.915.887-.634.506-.887 1.013-.887 1.647q0 .95.38 1.52t1.14 1.14c.508.38 1.902 1.014 4.056 2.154 2.282 1.014 3.802 2.154 4.817 3.42 1.013 1.268 1.394 2.661 1.394 4.435 0 2.407-.888 4.434-2.662 5.828-1.774 1.393-4.182 2.154-7.224 2.154s-5.577-.507-7.858-1.647M25.8 28.493V7.715h4.31l.76 2.66h.253c1.268-2.027 3.422-3.04 6.338-3.04 2.407 0 4.182.633 5.45 1.9s2.027 3.294 2.027 5.701v13.557h-5.703V16.457q0-2.28-.76-3.421c-.508-.76-1.395-1.14-2.535-1.14-1.521 0-2.789.506-3.422 1.52-.634 1.014-1.014 2.787-1.014 5.194v9.756zm23.7-10.389c0-3.421.888-6.082 2.662-7.855 1.775-1.9 4.183-2.914 7.478-2.914 2.028 0 3.802.38 5.196 1.267 1.521.886 2.662 2.153 3.549 3.674a13.5 13.5 0 0 1 1.267 5.701q0 5.13-2.661 7.982c-1.775 1.9-4.31 2.914-7.478 2.914-2.028 0-3.802-.38-5.323-1.267-1.52-.887-2.661-2.154-3.549-3.801q-1.14-2.47-1.14-5.701m6.718-4.688c-.634 1.014-1.014 2.534-1.014 4.561s.38 3.674 1.014 4.688c.633 1.013 1.774 1.52 3.295 1.52s2.662-.507 3.295-1.52c.634-1.014 1.014-2.534 1.014-4.688 0-2.027-.38-3.547-1.014-4.561-.633-1.014-1.774-1.52-3.295-1.52s-2.535.506-3.295 1.52M70.54 7.715h5.956c1.7 4.938 5.07 14.823 5.07 14.823s3.361-10.46 4.816-14.823h5.957l-8.112 20.778h-5.83z" class="logo-path-left"/><path fill="#DDCDFF" d="m92.593 28.493 3.042-13.81h3.675l-2.915 13.81zm3.549-17.103c0-.76.253-1.267.634-1.647.38-.38.887-.507 1.647-.507 1.014 0 1.648.507 1.648 1.52 0 .634-.127 1.14-.507 1.647-.38.38-.76.634-1.52.634-1.268-.127-1.902-.634-1.902-1.647m6.083 15.963c-1.013-1.014-1.394-2.28-1.394-3.927s.254-3.168.887-4.561c.634-1.394 1.395-2.408 2.535-3.168s2.408-1.14 4.056-1.14c1.521 0 2.788.507 3.675 1.52.888 1.014 1.395 2.28 1.395 4.054s-.254 3.295-.888 4.561c-.633 1.267-1.394 2.408-2.534 3.168-1.141.76-2.408 1.14-3.929 1.14s-2.789-.76-3.803-1.647m2.282-3.927q0 2.28 1.901 2.28c.634 0 1.141-.253 1.647-.76.507-.507.888-1.267 1.141-2.154.254-.887.38-1.9.38-2.914 0-1.647-.633-2.407-1.774-2.407-.634 0-1.141.253-1.648.76s-.887 1.267-1.14 2.154c-.254 1.013-.507 2.027-.507 3.04" class="logo-path-right" opacity=".5"/></svg>
